X:4
T:A Blues
C:Joe Carr
N:TablEdited by Larry Tanner
L:1/8
Q:1/4=180
M:4/4
K:C
"A"ae ^c^f dB ed | ^c^G AB ce3 | z2 (3^cd^d ec A^G | G3^F G_B ^c^f | "D"dA ^ce dA ^FA | 
(3BcB A^F E^D =DC | "A"^CE ^FA z^c d^d | ed ^cB _Bc eg | "E"^fd B^F _BF AG | ^GB df ed Bc | 
^ce ^gb ga ed | ^cA ^G2 A4 | 


